; generated by Slic3r 1.3.0 on 2020-05-08 at 14:30:47

; external perimeters extrusion width = 0.55mm (4.37mm^3/s)
; perimeters extrusion width = 0.70mm (11.44mm^3/s)
; infill extrusion width = 0.62mm (13.45mm^3/s)
; solid infill extrusion width = 0.70mm (3.81mm^3/s)
; top infill extrusion width = 0.70mm (2.86mm^3/s)

M107
M104 S200 ; set temperature
G28 ; home all axes
G1 Z5 F5000 ; lift nozzle

; Filament gcode

M109 S200 ; set temperature and wait for it to be reached
G21 ; set units to millimeters
G90 ; use absolute coordinates
M82 ; use absolute distances for extrusion
G92 E0
G1 Z0.350 F7800.000
G1 E-2.00000 F2400.00000
G92 E0
G1 X45.105 Y44.245 F7800.000
G1 E2.00000 F2400.00000
G1 F1800
G1 X45.871 Y43.588 E2.03119
G1 X46.852 Y42.868 E2.06886
G1 X47.708 Y42.335 E2.10005
G1 X48.787 Y41.772 E2.13772
G1 X49.714 Y41.375 E2.16892
G1 X50.866 Y40.982 E2.20658
G1 X51.843 Y40.731 E2.23778
G1 X53.041 Y40.517 E2.27545
G1 X54.044 Y40.417 E2.30664
G1 X55.419 Y40.386 E2.34918
G1 X144.581 Y40.386 E5.10798
G1 X145.956 Y40.417 E5.15053
G1 X146.959 Y40.518 E5.18172
G1 X148.157 Y40.731 E5.21939
G1 X149.134 Y40.982 E5.25058
G1 X150.286 Y41.375 E5.28825
G1 X151.213 Y41.772 E5.31944
G1 X152.292 Y42.335 E5.35711
G1 X153.148 Y42.868 E5.38830
G1 X154.130 Y43.588 E5.42597
G1 X154.895 Y44.245 E5.45716
G1 X155.755 Y45.105 E5.49483
G1 X156.412 Y45.870 E5.52603
G1 X157.132 Y46.852 E5.56369
G1 X157.665 Y47.708 E5.59489
G1 X158.228 Y48.787 E5.63256
G1 X158.625 Y49.714 E5.66375
G1 X159.018 Y50.866 E5.70142
G1 X159.269 Y51.842 E5.73261
G1 X159.470 Y52.971 E5.76808
G1 X159.583 Y54.044 E5.80147
G1 X159.614 Y55.419 E5.84401
G1 X159.614 Y144.581 E8.60281
G1 X159.583 Y145.956 E8.64535
G1 X159.482 Y146.959 E8.67655
G1 X159.269 Y148.157 E8.71421
G1 X159.018 Y149.134 E8.74541
G1 X158.625 Y150.286 E8.78308
G1 X158.228 Y151.213 E8.81427
G1 X157.665 Y152.292 E8.85194
G1 X157.132 Y153.148 E8.88313
G1 X156.412 Y154.130 E8.92080
G1 X155.755 Y154.895 E8.95199
G1 X154.895 Y155.755 E8.98966
G1 X154.130 Y156.412 E9.02085
G1 X153.148 Y157.132 E9.05852
G1 X152.292 Y157.665 E9.08971
G1 X151.213 Y158.228 E9.12739
G1 X150.286 Y158.625 E9.15858
G1 X149.134 Y159.018 E9.19625
G1 X148.158 Y159.269 E9.22744
G1 X147.029 Y159.470 E9.26291
G1 X145.956 Y159.583 E9.29629
G1 X144.581 Y159.614 E9.33884
G1 X55.419 Y159.614 E12.09764
G1 X54.044 Y159.583 E12.14018
G1 X53.041 Y159.482 E12.17137
G1 X51.842 Y159.269 E12.20904
G1 X50.866 Y159.018 E12.24023
G1 X49.714 Y158.625 E12.27790
G1 X48.787 Y158.228 E12.30910
G1 X47.708 Y157.665 E12.34677
G1 X46.852 Y157.132 E12.37796
G1 X45.870 Y156.412 E12.41563
G1 X45.105 Y155.755 E12.44682
G1 X44.245 Y154.894 E12.48449
G1 X43.588 Y154.130 E12.51568
G1 X42.868 Y153.148 E12.55335
G1 X42.335 Y152.292 E12.58454
G1 X41.772 Y151.213 E12.62221
G1 X41.375 Y150.286 E12.65340
G1 X40.982 Y149.134 E12.69107
G1 X40.731 Y148.157 E12.72226
G1 X40.517 Y146.959 E12.75994
G1 X40.417 Y145.956 E12.79113
G1 X40.386 Y144.581 E12.83367
G1 X40.386 Y55.419 E15.59247
G1 X40.417 Y54.044 E15.63502
G1 X40.518 Y53.041 E15.66621
G1 X40.731 Y51.843 E15.70387
G1 X40.982 Y50.866 E15.73507
G1 X41.375 Y49.714 E15.77274
G1 X41.772 Y48.787 E15.80393
G1 X42.335 Y47.708 E15.84160
G1 X42.868 Y46.852 E15.87279
G1 X43.588 Y45.870 E15.91046
G1 X44.245 Y45.105 E15.94165
G1 X45.052 Y44.298 E15.97700
G1 E13.97700 F2400.00000
G92 E0
G1 X55.764 Y141.855 F7800.000
G1 E2.00000 F2400.00000
G1 F1800
G1 X56.385 Y142.057 E2.02022
G1 X57.073 Y142.494 E2.04545
G1 X57.632 Y143.088 E2.07067
G1 X58.024 Y143.803 E2.09590
G1 X58.140 Y144.252 E2.11027
G1 X58.400 Y143.903 E2.12374
G1 X58.723 Y143.655 E2.13636
G1 X59.098 Y143.500 E2.14890
G1 X59.479 Y143.450 E2.16080
G1 X59.900 Y143.499 E2.17390
G1 X60.277 Y143.655 E2.18652
G1 X60.598 Y143.902 E2.19906
G1 X60.845 Y144.223 E2.21161
G1 X61.000 Y144.598 E2.22415
G1 X61.053 Y145.000 E2.23670
G1 X61.000 Y145.402 E2.24924
G1 X60.853 Y145.757 E2.26114
G1 X60.600 Y146.097 E2.27423
G1 X60.277 Y146.345 E2.28685
G1 X59.921 Y146.492 E2.29876
G1 X59.503 Y146.553 E2.31185
G1 X59.098 Y146.500 E2.32447
G1 X58.723 Y146.345 E2.33701
G1 X58.402 Y146.098 E2.34956
G1 X58.138 Y145.754 E2.36296
G1 X58.024 Y146.197 E2.37712
G1 X57.632 Y146.912 E2.40234
G1 X57.073 Y147.506 E2.42757
G1 X56.385 Y147.943 E2.45280
G1 X55.764 Y148.145 E2.47302
G1 X56.098 Y148.402 E2.48607
G1 X56.345 Y148.723 E2.49861
G1 X56.500 Y149.098 E2.51115
G1 X56.553 Y149.500 E2.52370
G1 X56.500 Y149.902 E2.53624
G1 X56.353 Y150.257 E2.54814
G1 X56.100 Y150.597 E2.56123
G1 X55.777 Y150.845 E2.57386
G1 X55.421 Y150.992 E2.58576
G1 X55.003 Y151.053 E2.59885
G1 X54.598 Y151.000 E2.61147
G1 X54.223 Y150.845 E2.62402
G1 X53.902 Y150.598 E2.63656
G1 X53.655 Y150.277 E2.64910
G1 X53.500 Y149.902 E2.66165
G1 X53.447 Y149.500 E2.67419
G1 X53.500 Y149.098 E2.68674
G1 X53.647 Y148.743 E2.69864
G1 X53.900 Y148.403 E2.71173
G1 X54.186 Y148.184 E2.72290
G1 X53.257 Y147.746 E2.75467
G1 X52.629 Y147.227 E2.77990
G1 X52.150 Y146.567 E2.80513
G1 X51.837 Y145.778 E2.83138
G1 X51.600 Y146.097 E2.84366
G1 X51.277 Y146.345 E2.85628
G1 X50.902 Y146.500 E2.86883
G1 X50.500 Y146.553 E2.88137
G1 X50.098 Y146.500 E2.89391
G1 X49.723 Y146.345 E2.90646
G1 X49.402 Y146.098 E2.91900
G1 X49.155 Y145.777 E2.93155
G1 X49.000 Y145.402 E2.94409
G1 X48.947 Y145.000 E2.95663
G1 X49.000 Y144.598 E2.96918
G1 X49.147 Y144.243 E2.98108
G1 X49.400 Y143.903 E2.99417
G1 X49.723 Y143.655 E3.00679
G1 X50.098 Y143.500 E3.01934
G1 X50.479 Y143.450 E3.03124
G1 X50.900 Y143.499 E3.04433
G1 X51.277 Y143.655 E3.05695
G1 X51.598 Y143.902 E3.06950
G1 X51.839 Y144.216 E3.08176
G1 X52.150 Y143.433 E3.10783
G1 X52.629 Y142.773 E3.13306
G1 X53.257 Y142.254 E3.15828
G1 X54.186 Y141.816 E3.19006
G1 X53.902 Y141.598 E3.20115
G1 X53.655 Y141.277 E3.21369
G1 X53.500 Y140.902 E3.22624
G1 X53.447 Y140.500 E3.23878
G1 X53.500 Y140.098 E3.25133
G1 X53.647 Y139.743 E3.26323
G1 X53.900 Y139.403 E3.27632
G1 X54.223 Y139.155 E3.28894
G1 X54.598 Y139.000 E3.30148
G1 X54.979 Y138.950 E3.31338
G1 X55.400 Y138.999 E3.32648
G1 X55.777 Y139.155 E3.33910
G1 X56.098 Y139.402 E3.35164
G1 X56.345 Y139.723 E3.36419
G1 X56.500 Y140.098 E3.37673
G1 X56.553 Y140.500 E3.38928
G1 X56.500 Y140.902 E3.40182
G1 X56.353 Y141.257 E3.41372
G1 X56.100 Y141.597 E3.42681
G1 X55.823 Y141.809 E3.43762
G1 X56.263 Y141.828 F7800.000
G1 E1.43762 F2400.00000
G92 E0
G1 X52.229 Y139.234 F7800.000
G1 E2.00000 F2400.00000
G1 F1800
G1 X52.432 Y139.411 E2.00833
G1 X52.282 Y139.772 E2.02043
G1 X52.186 Y140.500 E2.04315
G1 X52.282 Y141.228 E2.06588
G1 X52.347 Y141.384 E2.07111
G1 X51.711 Y141.911 E2.09667
G1 X51.392 Y142.350 E2.11346
G1 X51.217 Y142.278 E2.11929
G1 X50.470 Y142.190 E2.14257
G1 X49.772 Y142.282 E2.16437
G1 X49.113 Y142.555 E2.18644
G1 X49.420 Y141.876 E2.20952
G1 X49.954 Y141.070 E2.23942
G1 X50.609 Y140.350 E2.26954
G1 X51.365 Y139.738 E2.29965
G1 X52.164 Y139.271 E2.32827
G1 E0.32827 F2400.00000
G92 E0
G1 X54.596 Y138.324 F7800.000
G1 E2.00000 F2400.00000
G1 F1800
G1 X53.908 Y138.609 E2.02304
G1 X53.451 Y138.960 E2.04090
G1 X53.100 Y139.432 E2.05908
G1 X52.891 Y139.935 E2.07593
G1 X52.817 Y140.500 E2.09357
G1 X52.891 Y141.065 E2.11120
G1 X53.123 Y141.626 E2.12998
G1 X52.920 Y141.722 E2.13695
G1 X52.170 Y142.342 E2.16706
G1 X51.608 Y143.116 E2.19665
G1 X51.059 Y142.888 E2.21504
G1 X50.475 Y142.820 E2.23322
G1 X49.935 Y142.891 E2.25008
G1 X49.408 Y143.109 E2.26771
G1 X48.951 Y143.460 E2.28557
G1 X48.600 Y143.932 E2.30375
G1 X48.391 Y144.435 E2.32060
G1 X48.357 Y144.692 E2.32862
G1 X47.986 Y144.644 E2.34021
G1 X48.124 Y143.573 E2.37362
G1 X48.402 Y142.610 E2.40462
G1 X48.871 Y141.572 E2.43986
G1 X49.460 Y140.685 E2.47279
G1 X50.178 Y139.895 E2.50586
G1 X51.009 Y139.222 E2.53892
G1 X51.932 Y138.683 E2.57199
G1 X52.926 Y138.291 E2.60505
G1 X53.968 Y138.054 E2.63813
G1 X54.523 Y138.014 E2.65533
G1 X54.579 Y138.251 E2.66289
G1 X54.981 Y138.321 F7800.000
G1 F1800
G1 X54.988 Y137.980 E2.67344
G1 X56.053 Y137.902 E2.70647
G1 X57.432 Y137.576 E2.75031
G1 X56.966 Y138.201 E2.77443
G1 X56.800 Y138.602 E2.78785
G1 X56.734 Y139.102 E2.80346
G1 X56.092 Y138.609 E2.82851
G1 X55.559 Y138.388 E2.84637
G1 X55.055 Y138.329 E2.86205
G1 E0.86205 F2400.00000
G92 E0
G1 X57.676 Y141.309 F7800.000
G1 E2.00000 F2400.00000
G1 F1800
G1 X58.573 Y141.427 E2.02799
G1 X58.643 Y141.959 E2.04458
G1 X58.396 Y142.076 E2.05304
G1 X57.727 Y141.364 E2.08326
G1 X57.216 Y140.252 F7800.000
G1 F1800
G1 X57.608 Y140.552 E2.09853
G1 X58.026 Y140.725 E2.11253
G1 X58.481 Y140.785 E2.12675
G1 X58.940 Y140.718 E2.14109
G1 X59.524 Y140.476 E2.16065
G1 X59.275 Y141.077 E2.18077
G1 X59.216 Y141.526 E2.19477
G1 X59.275 Y141.974 E2.20877
G1 X59.448 Y142.392 E2.22278
G1 X59.748 Y142.784 E2.23805
G1 X58.935 Y142.891 E2.26344
G1 X58.366 Y143.127 E2.28249
G1 X58.141 Y142.718 E2.29693
G1 X57.475 Y142.008 E2.32704
G1 X56.876 Y141.628 E2.34900
G1 X57.109 Y141.065 E2.36786
G1 X57.206 Y140.326 E2.39093
G1 E0.39093 F2400.00000
G92 E0
G1 X60.900 Y143.268 F7800.000
G1 E2.00000 F2400.00000
G1 F1800
G1 X61.415 Y143.193 E2.01611
G1 X61.816 Y143.027 E2.02954
G1 X62.426 Y142.559 E2.05334
G1 X62.098 Y143.947 E2.09749
G1 X62.022 Y144.990 E2.12986
G1 X61.683 Y145.000 E2.14034
G1 X61.609 Y144.435 E2.15798
G1 X61.391 Y143.908 E2.17562
G1 X60.945 Y143.328 E2.19826
G1 E0.19826 F2400.00000
G92 E0
G1 X60.766 Y147.771 F7800.000
G1 E2.00000 F2400.00000
G1 F1800
G1 X60.262 Y148.635 E2.03095
G1 X59.650 Y149.391 E2.06106
G1 X58.930 Y150.046 E2.09117
G1 X58.118 Y150.584 E2.12129
G1 X57.441 Y150.897 E2.14440
G1 X57.718 Y150.228 E2.16681
G1 X57.814 Y149.500 E2.18953
G1 X57.718 Y148.772 E2.21226
G1 X57.654 Y148.618 E2.21741
G1 X57.876 Y148.477 E2.22555
G1 X58.640 Y147.663 E2.26009
G1 X58.772 Y147.718 E2.26449
G1 X59.512 Y147.815 E2.28758
G1 X60.256 Y147.706 E2.31085
G1 X60.589 Y147.568 E2.32202
G1 X60.717 Y147.715 E2.32803
G1 E0.32803 F2400.00000
G92 E0
G1 X61.676 Y145.404 F7800.000
G1 E2.00000 F2400.00000
G1 F1800
G1 X61.986 Y145.477 E2.00988
G1 X61.946 Y146.032 E2.02708
G1 X61.709 Y147.074 E2.06016
G1 X61.317 Y148.068 E2.09322
G1 X60.778 Y148.991 E2.12629
G1 X60.105 Y149.822 E2.15935
G1 X59.315 Y150.540 E2.19242
G1 X58.424 Y151.131 E2.22548
G1 X57.454 Y151.579 E2.25854
G1 X56.427 Y151.876 E2.29161
G1 X55.368 Y152.013 E2.32467
G1 X55.166 Y152.008 E2.33090
G1 X55.146 Y151.664 E2.34156
G1 X55.589 Y151.599 E2.35541
G1 X56.092 Y151.391 E2.37226
G1 X56.549 Y151.040 E2.39012
G1 X56.900 Y150.568 E2.40830
G1 X57.109 Y150.065 E2.42515
G1 X57.183 Y149.500 E2.44279
G1 X57.109 Y148.935 E2.46042
G1 X56.876 Y148.372 E2.47928
G1 X57.475 Y147.992 E2.50124
G1 X58.141 Y147.282 E2.53135
G1 X58.366 Y146.873 E2.54579
G1 X58.935 Y147.109 E2.56485
G1 X59.507 Y147.184 E2.58270
G1 X60.089 Y147.099 E2.60088
G1 X60.592 Y146.891 E2.61773
G1 X61.049 Y146.539 E2.63559
G1 X61.400 Y146.068 E2.65377
G1 X61.647 Y145.473 E2.67371
G1 E0.67371 F2400.00000
G92 E0
G1 X52.571 Y150.925 F7800.000
G1 E2.00000 F2400.00000
G1 F1800
G1 X51.619 Y150.429 E2.03321
G1 X50.835 Y149.853 E2.06332
G1 X50.147 Y149.165 E2.09344
G1 X49.571 Y148.381 E2.12355
G1 X49.075 Y147.429 E2.15676
G1 X49.772 Y147.718 E2.18011
G1 X50.500 Y147.814 E2.20284
G1 X51.228 Y147.718 E2.22556
G1 X51.392 Y147.650 E2.23103
G1 X51.711 Y148.089 E2.24782
G1 X52.347 Y148.616 E2.27338
G1 X52.282 Y148.772 E2.27861
G1 X52.186 Y149.500 E2.30134
G1 X52.282 Y150.228 E2.32407
G1 X52.542 Y150.856 E2.34510
G1 E0.34510 F2400.00000
G92 E0
G1 X54.681 Y151.641 F7800.000
G1 E2.00000 F2400.00000
G1 F1800
G1 X54.654 Y151.996 E2.01100
G1 X54.299 Y151.987 E2.02197
G1 X53.247 Y151.800 E2.05504
G1 X52.236 Y151.455 E2.08810
G1 X51.288 Y150.961 E2.12117
G1 X50.427 Y150.329 E2.15423
G1 X49.671 Y149.573 E2.18730
G1 X49.039 Y148.712 E2.22036
G1 X48.576 Y147.824 E2.25135
G1 X48.199 Y146.749 E2.28659
G1 X48.013 Y145.701 E2.31953
G1 X48.004 Y145.346 E2.33051
G1 X48.359 Y145.319 E2.34150
G1 X48.391 Y145.565 E2.34920
G1 X48.609 Y146.092 E2.36683
G1 X48.956 Y146.544 E2.38447
G1 X49.408 Y146.891 E2.40210
G1 X49.935 Y147.109 E2.41974
G1 X50.500 Y147.183 E2.43737
G1 X51.065 Y147.109 E2.45501
G1 X51.608 Y146.884 E2.47318
G1 X52.170 Y147.658 E2.50277
G1 X52.920 Y148.278 E2.53288
G1 X53.123 Y148.374 E2.53985
G1 X52.891 Y148.935 E2.55863
G1 X52.817 Y149.500 E2.57627
G1 X52.891 Y150.065 E2.59390
G1 X53.109 Y150.592 E2.61154
G1 X53.456 Y151.044 E2.62917
G1 X53.908 Y151.391 E2.64681
G1 X54.435 Y151.609 E2.66444
G1 X54.607 Y151.632 E2.66982
G1 E0.66982 F2400.00000
G92 E0
G1 X82.320 Y113.846 F7800.000
G1 E2.00000 F2400.00000
G1 F1800
G1 X82.581 Y113.812 E2.00815
G1 X82.866 Y113.845 E2.01703
G1 X83.131 Y113.955 E2.02591
G1 X83.409 Y114.187 E2.03711
G1 X83.573 Y114.401 E2.04545
G1 X83.679 Y114.657 E2.05401
G1 X83.715 Y114.931 E2.06257
G1 X83.679 Y115.205 E2.07113
G1 X83.573 Y115.461 E2.07970
G1 X83.419 Y115.662 E2.08754
G1 X59.236 Y139.845 E3.14572
G1 X59.026 Y140.006 E3.15392
G1 X58.773 Y140.111 E3.16239
G1 X58.477 Y140.154 E3.17165
G1 X58.189 Y140.116 E3.18063
G1 X57.923 Y140.006 E3.18954
G1 X57.694 Y139.831 E3.19845
G1 X57.519 Y139.602 E3.20736
G1 X57.409 Y139.336 E3.21627
G1 X57.371 Y139.051 E3.22518
G1 X57.409 Y138.765 E3.23409
G1 X57.514 Y138.512 E3.24257
G1 X57.678 Y138.291 E3.25110
G1 X81.863 Y114.107 E4.30936
G1 X82.064 Y113.952 E4.31721
G1 X82.251 Y113.875 E4.32345
G1 X82.388 Y113.592 F7800.000
G1 E2.32345 F2400.00000
G92 E0
G1 X84.795 Y116.321 F7800.000
G1 E2.00000 F2400.00000
G1 F1800
G1 X85.056 Y116.287 E2.00815
G1 X85.341 Y116.320 E2.01704
G1 X85.599 Y116.427 E2.02568
G1 X85.813 Y116.591 E2.03401
G1 X86.045 Y116.869 E2.04522
G1 X86.154 Y117.131 E2.05401
G1 X86.190 Y117.406 E2.06257
G1 X86.154 Y117.680 E2.07113
G1 X86.048 Y117.936 E2.07970
G1 X85.893 Y118.137 E2.08754
G1 X61.711 Y142.320 E3.14572
G1 X61.501 Y142.481 E3.15392
G1 X61.247 Y142.586 E3.16239
G1 X60.952 Y142.629 E3.17165
G1 X60.664 Y142.591 E3.18063
G1 X60.398 Y142.481 E3.18954
G1 X60.169 Y142.306 E3.19845
G1 X59.994 Y142.077 E3.20736
G1 X59.884 Y141.811 E3.21627
G1 X59.846 Y141.526 E3.22518
G1 X59.884 Y141.240 E3.23409
G1 X59.994 Y140.974 E3.24300
G1 X60.155 Y140.764 E3.25119
G1 X84.338 Y116.581 E4.30938
G1 X84.539 Y116.427 E4.31722
G1 X84.725 Y116.350 E4.32346
G1 X84.863 Y116.067 F7800.000
G1 E2.32346 F2400.00000
G92 E0
G1 X82.102 Y105.525 F7800.000
G1 E2.00000 F2400.00000
G1 F1800
G1 X81.651 Y105.609 E2.01417
G1 X81.196 Y105.637 E2.02829
G1 X80.740 Y105.609 E2.04241
G1 X80.290 Y105.525 E2.05658
G1 X79.850 Y105.386 E2.07087
G1 X79.424 Y105.195 E2.08531
G1 X79.017 Y104.953 E2.09995
G1 X78.626 Y104.659 E2.11511
G1 X77.946 Y103.958 E2.14532
G1 X77.387 Y103.102 E2.17693
G1 X76.975 Y102.133 E2.20951
G1 X76.722 Y101.086 E2.24284
G1 X76.637 Y100.000 E2.27655
G1 X76.722 Y98.914 E2.31027
G1 X76.975 Y97.867 E2.34360
G1 X77.387 Y96.898 E2.37618
G1 X77.946 Y96.042 E2.40778
G1 X78.626 Y95.341 E2.43800
G1 X79.017 Y95.047 E2.45316
G1 X79.424 Y94.805 E2.46780
G1 X79.850 Y94.614 E2.48224
G1 X80.290 Y94.475 E2.49653
G1 X80.740 Y94.391 E2.51070
G1 X81.171 Y94.365 E2.52403
G1 X81.650 Y94.391 E2.53889
G1 X82.102 Y94.475 E2.55310
G1 X82.542 Y94.614 E2.56739
G1 X82.968 Y94.805 E2.58183
G1 X83.375 Y95.047 E2.59647
G1 X83.766 Y95.341 E2.61163
G1 X84.446 Y96.042 E2.64184
G1 X85.004 Y96.898 E2.67345
G1 X85.417 Y97.867 E2.70603
G1 X85.669 Y98.914 E2.73936
G1 X85.754 Y100.000 E2.77307
G1 X85.669 Y101.086 E2.80679
G1 X85.417 Y102.133 E2.84012
G1 X85.004 Y103.102 E2.87270
G1 X84.446 Y103.958 E2.90430
G1 X83.766 Y104.659 E2.93452
G1 X83.375 Y104.953 E2.94968
G1 X82.968 Y105.195 E2.96432
G1 X82.542 Y105.386 E2.97876
G1 X82.173 Y105.502 E2.99072
G1 X82.102 Y105.525 F7800.000
G1 E0.99072 F2400.00000
G92 E0
G1 X114.331 Y101.086 F7800.000
G1 E2.00000 F2400.00000
G1 F1800
G1 X114.246 Y100.000 E2.03372
G1 X114.331 Y98.914 E2.06744
G1 X114.583 Y97.867 E2.10076
G1 X114.996 Y96.898 E2.13335
G1 X115.554 Y96.042 E2.16495
G1 X116.234 Y95.341 E2.19517
G1 X116.625 Y95.047 E2.21032
G1 X117.032 Y94.805 E2.22496
G1 X117.458 Y94.614 E2.23940
G1 X117.898 Y94.475 E2.25369
G1 X118.349 Y94.391 E2.26786
G1 X118.779 Y94.365 E2.28120
G1 X119.258 Y94.391 E2.29606
G1 X119.710 Y94.475 E2.31027
G1 X120.150 Y94.614 E2.32455
G1 X120.576 Y94.805 E2.33899
G1 X120.983 Y95.047 E2.35364
